packages/core/src/svgs/tokens/branded/PYUSD.svg

<svg width="24" height="24" viewBox="0 0 24 24" fill="none" xmlns="http://www.w3.org/2000/svg">
<path fill-rule="evenodd" clip-rule="evenodd" d="M6.63131 2.72001C6.68463 2.30666 7.03131 2 7.44463 2H14.9381C15.7594 2.05404 16.5616 2.27289 17.2968 2.64352C18.0318 3.01415 18.6848 3.52896 19.2166 4.1573C19.7485 4.78562 20.1486 5.51458 20.3926 6.30076C20.6369 7.08694 20.7204 7.91424 20.6379 8.73335C20.2713 13.5801 16.4513 15.3333 14.458 15.3333H11.8447L10.7314 21.3201C10.6646 21.72 10.318 22 9.91796 22H4.97129C4.73796 22 4.50463 21.8934 4.35129 21.7133C4.27316 21.6237 4.21492 21.5186 4.18045 21.4048C4.14596 21.2911 4.13604 21.1714 4.1513 21.0534L5.38464 12.0001H4.15797C3.69796 12.0001 3.3313 11.6268 3.3313 11.1666C3.3313 10.7066 3.69796 10.3333 4.15797 10.3333H5.6113L6.05798 7H4.15797C3.69796 7 3.3313 6.62667 3.3313 6.16667C3.3313 5.70668 3.6913 5.33335 4.1513 5.33335H6.27797L6.63131 2.72001ZM7.71798 7L7.26464 10.3333H13.2179C13.4383 10.3409 13.6577 10.3028 13.8627 10.2216C14.0676 10.1403 14.2535 10.0175 14.4087 9.86104C14.5639 9.70455 14.6851 9.51772 14.7648 9.31223C14.8444 9.10675 14.8807 8.8869 14.8713 8.66668C14.8807 8.44646 14.8444 8.22669 14.7648 8.02115C14.6851 7.81562 14.5639 7.62875 14.4087 7.47226C14.2535 7.31577 14.0676 7.19305 13.8627 7.11179C13.6577 7.03052 13.4383 6.99246 13.2179 7H7.72463H7.71798ZM7.04464 12.0001H13.2179C13.6555 12.0046 14.0893 11.9212 14.4939 11.7549C14.8985 11.5886 15.2657 11.3427 15.5735 11.0318C15.8812 10.7209 16.1234 10.3513 16.2856 9.94504C16.4479 9.53872 16.5269 9.1041 16.518 8.66668C16.518 6.80001 15.0913 5.33335 13.2179 5.33335H7.94464L8.16464 3.66667H14.8313C15.433 3.70464 16.021 3.86406 16.5594 4.13533C17.098 4.40661 17.576 4.78409 17.9647 5.24507C18.3534 5.70603 18.6448 6.24094 18.8212 6.81752C18.9976 7.39412 19.0555 8.00046 18.9914 8.60002C18.7047 12.4201 15.758 13.6667 14.458 13.6667H11.1581C10.758 13.6667 10.4246 13.9534 10.3446 14.3466L9.23802 20.3334H5.91796L7.04464 12.0001Z" fill="#3B6FEF"/>
</svg>

<svg xmlns="http://www.w3.org/2000/svg" width="24" height="24" fill="none" viewBox="0 0 24 24">
    <path fill="#3B6FEF" fill-rule="evenodd" d="M6.631 2.72A.82.82 0 0 1 7.445 2h7.493a6.135 6.135 0 0 1 5.7 6.733c-.367 4.847-4.187 6.6-6.18 6.6h-2.613L10.73 21.32a.82.82 0 0 1-.813.68H4.971a.84.84 0 0 1-.82-.947L5.385 12H4.158a.83.83 0 0 1-.827-.833c0-.46.367-.834.827-.834h1.453L6.058 7h-1.9a.83.83 0 0 1-.827-.833c0-.46.36-.834.82-.834h2.127zM7.718 7l-.453 3.333h5.953a1.6 1.6 0 0 0 1.653-1.666A1.6 1.6 0 0 0 13.218 7zm-.673 5h6.173a3.27 3.27 0 0 0 3.3-3.333c0-1.867-1.427-3.334-3.3-3.334H7.945l.22-1.666h6.666a4.466 4.466 0 0 1 4.16 4.933c-.286 3.82-3.233 5.067-4.533 5.067h-3.3c-.4 0-.733.286-.813.68l-1.107 5.986h-3.32z" clip-rule="evenodd"/>
</svg>
